src/assets/social_sharing_icons/text_icon.svg

<svg fill="none" height="41" viewBox="0 0 40 41" width="40" xmlns="http://www.w3.org/2000/svg"><circle cx="20" cy="20.4346" fill="#16d2aa" r="20"/><path d="m25 20h-2v-2h2m-4 2h-2v-2h2m-4 2h-2v-2h2m11-7h-16c-.5304 0-1.0391.2107-1.4142.5858s-.5858.8838-.5858 1.4142v18l4-4h14c.5304 0 1.0391-.2107 1.4142-.5858s.5858-.8838.5858-1.4142v-12c0-1.11-.9-2-2-2z" fill="#fff"/></svg>

<svg width="40" height="41" viewBox="0 0 40 41" fill="none" xmlns="http://www.w3.org/2000/svg">
<circle cx="20" cy="20.4346" r="20" fill="#16D2AA"/>
<path d="M25 20H23V18H25M21 20H19V18H21M17 20H15V18H17M28 11H12C11.4696 11 10.9609 11.2107 10.5858 11.5858C10.2107 11.9609 10 12.4696 10 13V31L14 27H28C28.5304 27 29.0391 26.7893 29.4142 26.4142C29.7893 26.0391 30 25.5304 30 25V13C30 11.89 29.1 11 28 11Z" fill="white"/>
</svg>
